Komodo/apps/scalable/dia.svg

<?xml version="1.0" encoding="UTF-8" standalone="no"?>
<!-- Created with Inkscape (http://www.inkscape.org/) -->

<svg
   xmlns:dc="http://purl.org/dc/elements/1.1/"
   xmlns:cc="http://creativecommons.org/ns#"
   xmlns:rdf="http://www.w3.org/1999/02/22-rdf-syntax-ns#"
   xmlns:svg="http://www.w3.org/2000/svg"
   xmlns="http://www.w3.org/2000/svg"
   xmlns:xlink="http://www.w3.org/1999/xlink"
   xmlns:sodipodi="http://sodipodi.sourceforge.net/DTD/sodipodi-0.dtd"
   xmlns:inkscape="http://www.inkscape.org/namespaces/inkscape"
   width="96"
   height="96"
   id="svg11037"
   version="1.1"
   inkscape:version="0.48.3.1 r9886"
   sodipodi:docname="dia.svg">
  <defs
     id="defs11039">
    <linearGradient
       y2="1046.1001"
       x2="47.999954"
       y1="962.62189"
       x1="47.999954"
       gradientTransform="matrix(1.15,0,0,1.15,-7.1999462,-150.65291)"
       gradientUnits="userSpaceOnUse"
       id="linearGradient3886"
       xlink:href="#linearGradient3795"
       inkscape:collect="always" />
    <linearGradient
       id="linearGradient3795">
      <stop
         style="stop-color:#13a6fd;stop-opacity:1;"
         offset="0"
         id="stop3797" />
      <stop
         style="stop-color:#2975b6;stop-opacity:1;"
         offset="1"
         id="stop3799" />
    </linearGradient>
    <linearGradient
       y2="1046.1001"
       x2="47.999954"
       y1="962.62189"
       x1="47.999954"
       gradientTransform="matrix(1.15,0,0,1.15,-7.1999462,-150.65292)"
       gradientUnits="userSpaceOnUse"
       id="linearGradient11642"
       xlink:href="#linearGradient5801"
       inkscape:collect="always" />
    <linearGradient
       id="linearGradient5801"
       y2="902.35999"
       gradientUnits="userSpaceOnUse"
       x2="48"
       gradientTransform="translate(48,2.4406701)"
       y1="1052.4"
       x1="48">
      <stop
         id="stop3702-85"
         style="stop-color:#dcdcdc"
         offset="0" />
      <stop
         id="stop3704-9"
         style="stop-color:#f0f0f0"
         offset="1" />
    </linearGradient>
    <linearGradient
       y2="902.35999"
       x2="48"
       y1="1052.4"
       x1="48"
       gradientTransform="translate(-113.40738,12.39431)"
       gradientUnits="userSpaceOnUse"
       id="linearGradient3043"
       xlink:href="#linearGradient5801"
       inkscape:collect="always" />
    <linearGradient
       x1="32"
       y1="80"
       x2="32"
       y2="16"
       id="linearGradient3928"
       xlink:href="#linearGradient3922"
       gradientUnits="userSpaceOnUse" />
    <linearGradient
       id="linearGradient3922">
      <stop
         id="stop3924"
         style="stop-color:#323232;stop-opacity:1"
         offset="0" />
      <stop
         id="stop3926"
         style="stop-color:#5a5a5a;stop-opacity:1"
         offset="1" />
    </linearGradient>
    <linearGradient
       x1="42"
       y1="49"
       x2="54"
       y2="49"
       id="linearGradient3895"
       xlink:href="#linearGradient3889"
       gradientUnits="userSpaceOnUse"
       gradientTransform="translate(-68,0)" />
    <linearGradient
       id="linearGradient3889">
      <stop
         id="stop3891"
         style="stop-color:#464646;stop-opacity:1"
         offset="0" />
      <stop
         id="stop3893"
         style="stop-color:#464646;stop-opacity:0"
         offset="1" />
    </linearGradient>
    <linearGradient
       x1="45"
       y1="56"
       x2="45"
       y2="36"
       id="linearGradient3951"
       xlink:href="#linearGradient3945"
       gradientUnits="userSpaceOnUse" />
    <linearGradient
       id="linearGradient3945">
      <stop
         id="stop3947"
         style="stop-color:#e66b19;stop-opacity:1"
         offset="0" />
      <stop
         id="stop3949"
         style="stop-color:#e69e19;stop-opacity:1"
         offset="1" />
    </linearGradient>
    <clipPath
       clipPathUnits="userSpaceOnUse"
       id="clipPath3009">
      <path
         id="path3011"
         d="m -2,956.36218 -96,0 0,33.5624 96,25.68742 0,-59.24982 z"
         style="opacity:0.15;fill:#ffffff;fill-opacity:1;stroke:none"
         inkscape:connector-curvature="0" />
    </clipPath>
  </defs>
  <sodipodi:namedview
     id="base"
     pagecolor="#ffffff"
     bordercolor="#666666"
     borderopacity="1.0"
     inkscape:pageopacity="0.0"
     inkscape:pageshadow="2"
     inkscape:zoom="3.959798"
     inkscape:cx="33.538031"
     inkscape:cy="59.964634"
     inkscape:document-units="px"
     inkscape:current-layer="layer1"
     showgrid="false"
     inkscape:window-width="1280"
     inkscape:window-height="750"
     inkscape:window-x="0"
     inkscape:window-y="22"
     inkscape:window-maximized="1"
     showguides="true"
     inkscape:guide-bbox="true">
    <sodipodi:guide
       orientation="0,1"
       position="-24.748737,0"
       id="guide11064" />
    <sodipodi:guide
       orientation="0,1"
       position="-23.233509,96"
       id="guide11066" />
    <sodipodi:guide
       orientation="1,0"
       position="0,54.800776"
       id="guide11068" />
    <sodipodi:guide
       orientation="1,0"
       position="96,51.012704"
       id="guide11070" />
    <sodipodi:guide
       orientation="0,1"
       position="-18.94036,48"
       id="guide11072" />
    <sodipodi:guide
       orientation="1,0"
       position="48,79.296975"
       id="guide11074" />
    <sodipodi:guide
       orientation="1,0"
       position="2,75.508903"
       id="guide11076" />
    <sodipodi:guide
       orientation="0,1"
       position="-77.27667,2"
       id="guide11078" />
    <sodipodi:guide
       orientation="1,0"
       position="94,77.781746"
       id="guide11080" />
    <sodipodi:guide
       orientation="0,1"
       position="-65.912454,94"
       id="guide11082" />
  </sodipodi:namedview>
  <metadata
     id="metadata11042">
    <rdf:RDF>
      <cc:Work
         rdf:about="">
        <dc:format>image/svg+xml</dc:format>
        <dc:type
           rdf:resource="http://purl.org/dc/dcmitype/StillImage" />
        <dc:title />
      </cc:Work>
    </rdf:RDF>
  </metadata>
  <g
     inkscape:label="Layer 1"
     inkscape:groupmode="layer"
     id="layer1"
     transform="translate(0,-956.36218)">
    <rect
       x="2"
       y="958.36218"
       width="92"
       height="92"
       style="fill:url(#linearGradient11642);fill-opacity:1.0"
       id="rect3867"
       rx="25"
       ry="25" />
    <g
       transform="translate(5,956.36218)"
       id="g3063">
      <g
         id="layer4">
        <path
           style="color:#000000;fill:url(#linearGradient3928);fill-opacity:1;fill-rule:nonzero;stroke:none;stroke-width:1;marker:none;visibility:visible;display:inline;overflow:visible;enable-background:accumulate"
           id="rect3864"
           inkscape:connector-curvature="0"
           d="m 28,18 0,6 -4,0 0,6.03125 4,0 0,35.9375 -4,0 0,6.03125 4,0 0,4 -3,0 4,8 4,-8 -3,0 0,-4 18,0 C 61.296,72 72,61.296 72,48 72,34.704 61.296,24 48,24 l -18,0 0,-6 -2,0 z m 2,12.03125 18,0 c 10.059868,0 17.96875,7.908882 17.96875,17.96875 0,10.059868 -7.908882,17.96875 -17.96875,17.96875 l -18,0 0,-35.9375 z" />
        <rect
           style="color:#000000;fill:url(#linearGradient3895);fill-opacity:1;fill-rule:nonzero;stroke:none;stroke-width:1;marker:none;visibility:visible;display:inline;overflow:visible;enable-background:accumulate"
           id="rect3883"
           transform="scale(-1,1)"
           y="48"
           x="-54"
           height="2"
           width="40" />
        <path
           inkscape:connector-curvature="0"
           style="color:#000000;fill:#464646;fill-opacity:1;fill-rule:nonzero;stroke:none;stroke-width:1;marker:none;visibility:visible;display:inline;overflow:visible;enable-background:accumulate"
           id="path3885"
           transform="matrix(0,-1.1547005,1.3333333,0,-7.3333323,117.12733)"
           d="m 59,52 -3.464102,-6 6.928204,0 z" />
        <rect
           style="color:#000000;fill:#505050;fill-opacity:1;fill-rule:nonzero;stroke:none;stroke-width:1;marker:none;visibility:visible;display:inline;overflow:visible;enable-background:accumulate"
           id="rect3897"
           y="14"
           x="26"
           height="6"
           width="6" />
        <rect
           style="color:#000000;fill:#87f042;fill-opacity:1;fill-rule:nonzero;stroke:none;stroke-width:1;marker:none;visibility:visible;display:inline;overflow:visible;enable-background:accumulate"
           id="rect3899"
           y="15"
           x="27"
           height="4"
           width="4" />
        <path
           style="opacity:0.05;color:#000000;fill:#000000;fill-opacity:1;fill-rule:nonzero;stroke:none;stroke-width:1;marker:none;visibility:visible;display:inline;overflow:visible;enable-background:accumulate"
           id="path3941"
           inkscape:connector-curvature="0"
           d="m 41.90625,35.03125 c -0.785672,0.06764 -1.47602,0.597592 -1.746797,1.337628 -3.292734,6.595791 -6.585469,13.191581 -9.878203,19.787372 -0.642945,1.049606 0.208406,2.666086 1.46875,2.75 2.148012,0.07219 4.312451,0.01095 6.466852,0.03125 4.636049,0 9.272099,0 13.908148,0 1.311394,-0.05746 2.229979,-1.612826 1.625,-2.78125 C 53.081215,54.962699 52.487404,53.647925 51.847443,52.40777 49.082226,46.889727 46.345821,41.345051 43.5625,35.84375 43.150998,35.340488 42.570004,34.99994 41.90625,35.03125 z M 42,48.28125 c 0.635417,1.260417 1.270833,2.520833 1.90625,3.78125 -1.270833,0 -2.541667,0 -3.8125,0 C 40.729167,50.802083 41.364583,49.541667 42,48.28125 z" />
        <path
           inkscape:connector-curvature="0"
           style="opacity:0.1;color:#000000;fill:#000000;fill-opacity:1;fill-rule:nonzero;stroke:none;stroke-width:1;marker:none;visibility:visible;display:inline;overflow:visible;enable-background:accumulate"
           id="path3937"
           d="m 41.8125,36.0625 a 0.94282005,0.94282005 0 0 0 -0.65625,0.53125 l -10,20 A 0.94282005,0.94282005 0 0 0 32,57.9375 l 20,0 a 0.94282005,0.94282005 0 0 0 0.84375,-1.34375 l -10,-20 A 0.94282005,0.94282005 0 0 0 41.8125,36.0625 z M 42,46.09375 l 3.5,6.96875 -7,0 3.5,-6.96875 z" />
        <path
           style="opacity:0.3;color:#000000;fill:#000000;fill-opacity:1;fill-rule:nonzero;stroke:none;stroke-width:1;marker:none;visibility:visible;display:inline;overflow:visible;enable-background:accumulate"
           id="path3933"
           inkscape:connector-curvature="0"
           d="M 42,37 32,57 52,57 42,37 z m 0,7 5,10 -10,0 5,-10 z" />
        <path
           style="color:#000000;fill:url(#linearGradient3951);fill-opacity:1;fill-rule:nonzero;stroke:none;stroke-width:1;marker:none;visibility:visible;display:inline;overflow:visible;enable-background:accumulate"
           id="path3901"
           inkscape:connector-curvature="0"
           d="M 42,36 32,56 52,56 42,36 z m 0,7 5,10 -10,0 5,-10 z" />
        <path
           style="opacity:0.5;color:#000000;fill:#ffcc00;fill-opacity:1;fill-rule:nonzero;stroke:none;stroke-width:1;marker:none;visibility:visible;display:inline;overflow:visible;enable-background:accumulate"
           id="path3953"
           inkscape:connector-curvature="0"
           d="M 42,36 32,56 32.5,56 42,37 51.5,56 52,56 42,36 z m -4.5,17 -0.5,1 10,0 -0.5,-1 -9,0 z" />
      </g>
    </g>
    <rect
       ry="25"
       rx="25"
       id="rect3003"
       style="opacity:0.15;fill:#ffffff;fill-opacity:1"
       height="92"
       width="92"
       y="958.36218"
       x="-96"
       clip-path="url(#clipPath3009)"
       transform="translate(98,3.8281269e-7)" />
  </g>
</svg>

<?xml version="1.0" encoding="UTF-8" standalone="no"?>
<!-- Created with Inkscape (http://www.inkscape.org/) -->
<svg id="svg11037" xmlns:rdf="http://www.w3.org/1999/02/22-rdf-syntax-ns#" xmlns="http://www.w3.org/2000/svg" height="96" width="96" version="1.1" xmlns:cc="http://creativecommons.org/ns#" xmlns:xlink="http://www.w3.org/1999/xlink" xmlns:dc="http://purl.org/dc/elements/1.1/">
 <defs id="defs11039">
  <linearGradient id="linearGradient11642" y2="1046.1" gradientUnits="userSpaceOnUse" y1="962.62" gradientTransform="matrix(1.15 0 0 1.15 -7.1999 -150.65)" x2="48" x1="48">
   <stop id="stop3702-85" style="stop-color:#dcdcdc" offset="0"/>
   <stop id="stop3704-9" style="stop-color:#f0f0f0" offset="1"/>
  </linearGradient>
  <linearGradient id="linearGradient3928" y2="16" gradientUnits="userSpaceOnUse" x2="32" y1="80" x1="32">
   <stop id="stop3924" style="stop-color:#323232" offset="0"/>
   <stop id="stop3926" style="stop-color:#5a5a5a" offset="1"/>
  </linearGradient>
  <linearGradient id="linearGradient3895" y2="49" gradientUnits="userSpaceOnUse" x2="54" gradientTransform="translate(-68)" y1="49" x1="42">
   <stop id="stop3891" style="stop-color:#464646" offset="0"/>
   <stop id="stop3893" style="stop-color:#464646;stop-opacity:0" offset="1"/>
  </linearGradient>
  <linearGradient id="linearGradient3951" y2="36" gradientUnits="userSpaceOnUse" x2="45" y1="56" x1="45">
   <stop id="stop3947" style="stop-color:#e66b19" offset="0"/>
   <stop id="stop3949" style="stop-color:#e69e19" offset="1"/>
  </linearGradient>
  <clipPath id="clipPath3009" clipPathUnits="userSpaceOnUse">
   <path id="path3011" style="opacity:.15;fill:#fff" d="m-2 956.36h-96v33.562l96 25.687v-59.25z"/>
  </clipPath>
 </defs>
 <metadata id="metadata11042">
  <rdf:RDF>
   <cc:Work rdf:about="">
    <dc:format>image/svg+xml</dc:format>
    <dc:type rdf:resource="http://purl.org/dc/dcmitype/StillImage"/>
    <dc:title/>
   </cc:Work>
  </rdf:RDF>
 </metadata>
 <g id="layer1" transform="translate(0 -956.36)">
  <rect id="rect3867" style="fill:url(#linearGradient11642)" rx="25" ry="25" height="92" width="92" y="958.36" x="2"/>
  <g id="g3063" transform="translate(5 956.36)">
   <g id="layer4">
    <path id="rect3864" d="m28 18v6h-4v6.0312h4v35.938h-4v6.0312h4v4h-3l4 8 4-8h-3v-4h18c13.296 0 24-10.704 24-24s-10.704-24-24-24h-18v-6h-2zm2 12.031h18c10.06 0 17.969 7.9089 17.969 17.969s-7.9089 17.969-17.969 17.969h-18v-35.938z" style="color:#000000;fill:url(#linearGradient3928)"/>
    <rect id="rect3883" style="color:#000000;fill:url(#linearGradient3895)" transform="scale(-1,1)" height="2" width="40" y="48" x="-54"/>
    <path id="path3885" d="m59 52-3.4641-6h6.9282z" style="color:#000000;fill:#464646" transform="matrix(0 -1.1547 1.3333 0 -7.3333 117.13)"/>
    <rect id="rect3897" style="color:#000000;fill:#505050" height="6" width="6" y="14" x="26"/>
    <rect id="rect3899" style="color:#000000;fill:#87f042" height="4" width="4" y="15" x="27"/>
    <path id="path3941" d="m41.906 35.031c-0.78567 0.06764-1.476 0.59759-1.7468 1.3376-3.2927 6.5958-6.5855 13.192-9.8782 19.787-0.64294 1.0496 0.20841 2.6661 1.4688 2.75 2.148 0.07219 4.3125 0.01095 6.4669 0.03125h13.908c1.3114-0.05746 2.23-1.6128 1.625-2.7812-0.669-1.193-1.263-2.508-1.903-3.748-2.765-5.518-5.501-11.063-8.285-16.564-0.411-0.504-0.992-0.844-1.656-0.813zm0.094 13.25l1.9062 3.7812h-3.8125c0.635-1.26 1.271-2.52 1.906-3.781z" style="opacity:.05;color:#000000"/>
    <path id="path3937" d="m41.812 36.062a0.94282 0.94282 0 0 0 -0.65625 0.53125l-10 20a0.94282 0.94282 0 0 0 0.844 1.345h20a0.94282 0.94282 0 0 0 0.84375 -1.3438l-10-20a0.94282 0.94282 0 0 0 -1.032 -0.532zm0.188 10.032l3.5 6.9688h-7l3.5-6.9688z" style="opacity:.1;color:#000000"/>
    <path id="path3933" d="m42 37-10 20h20l-10-20zm0 7 5 10h-10l5-10z" style="opacity:.3;color:#000000"/>
    <path id="path3901" d="m42 36-10 20h20l-10-20zm0 7 5 10h-10l5-10z" style="color:#000000;fill:url(#linearGradient3951)"/>
    <path id="path3953" d="m42 36-10 20h0.5l9.5-19 9.5 19h0.5l-10-20zm-4.5 17-0.5 1h10l-0.5-1h-9z" style="opacity:.5;color:#000000;fill:#fc0"/>
   </g>
  </g>
  <rect id="rect3003" style="opacity:.15;fill:#fff" transform="translate(98 3.8281e-7)" clip-path="url(#clipPath3009)" rx="25" ry="25" height="92" width="92" y="958.36" x="-96"/>
 </g>
</svg>
